; generated by Slic3r 1.3.0 on 2023-05-31 at 18:37:24

; external perimeters extrusion width = 0.55mm (4.37mm^3/s)
; perimeters extrusion width = 0.70mm (11.44mm^3/s)
; infill extrusion width = 0.62mm (13.45mm^3/s)
; solid infill extrusion width = 0.70mm (3.81mm^3/s)
; top infill extrusion width = 0.70mm (2.86mm^3/s)

M107
M104 S200 ; set temperature
G28 ; home all axes
G1 Z5 F5000 ; lift nozzle

; Filament gcode

M109 S200 ; set temperature and wait for it to be reached
G21 ; set units to millimeters
G90 ; use absolute coordinates
M82 ; use absolute distances for extrusion
G92 E0
G1 Z0.350 F7800.000
G1 E-2.00000 F2400.00000
G92 E0
G1 X75.315 Y53.315 F7800.000
G1 E2.00000 F2400.00000
G1 F1800
G1 X77.193 Y51.999 E2.07096
G1 X80.000 Y51.375 E2.15992
G1 X142.000 Y51.375 E4.07828
G1 X144.259 Y51.772 E4.14924
G1 X146.247 Y52.915 E4.22021
G1 X147.726 Y54.668 E4.29117
G1 X148.519 Y56.820 E4.36213
G1 X148.625 Y58.000 E4.39878
G1 X148.625 Y142.000 E6.99785
G1 X148.228 Y144.259 E7.06882
G1 X147.085 Y146.247 E7.13978
G1 X145.332 Y147.726 E7.21074
G1 X143.180 Y148.519 E7.28170
G1 X142.000 Y148.625 E7.31835
G1 X58.000 Y148.625 E9.91742
G1 X55.741 Y148.228 E9.98839
G1 X53.753 Y147.085 E10.05935
G1 X52.274 Y145.332 E10.13031
G1 X51.481 Y143.180 E10.20127
G1 X51.375 Y142.000 E10.23792
G1 X51.375 Y80.000 E12.15629
G1 X51.772 Y77.741 E12.22725
G1 X53.315 Y75.315 E12.31621
G1 X75.262 Y53.369 E13.27655
G1 E11.27655 F2400.00000
G92 E0
G1 X95.400 Y95.400 F7800.000
G1 E2.00000 F2400.00000
G1 F1800
G1 X59.600 Y95.400 E3.10771
G1 X59.600 Y81.600 E3.53472
G1 X73.663 Y81.600 E3.96984
G1 X81.600 Y73.663 E4.31715
G1 X81.600 Y59.600 E4.75227
G1 X95.400 Y59.600 E5.17928
G1 X95.400 Y95.325 E6.28467
G1 X96.025 Y96.025 F7800.000
G1 F1800
G1 X58.975 Y96.025 E7.43105
G1 X58.975 Y80.975 E7.89673
G1 X73.404 Y80.975 E8.34318
G1 X80.975 Y73.404 E8.67447
G1 X80.975 Y58.975 E9.12092
G1 X96.025 Y58.975 E9.58659
G1 X96.025 Y95.950 E10.73065
G1 X96.650 Y96.650 F7800.000
G1 F1800
G1 X58.350 Y96.650 E11.91571
G1 X58.350 Y80.350 E12.42005
G1 X73.145 Y80.350 E12.87783
G1 X80.350 Y73.145 E13.19310
G1 X80.350 Y58.350 E13.65088
G1 X96.650 Y58.350 E14.15522
G1 X96.650 Y96.575 E15.33795
G1 X96.187 Y96.460 F7800.000
G1 E13.33795 F2400.00000
G92 E0
G1 X94.532 Y95.018 F7800.000
G1 E2.00000 F2400.00000
G1 F1800
G1 X95.018 Y94.532 E2.02139
G1 X95.018 Y93.643 E2.04905
G1 X93.643 Y95.018 E2.10955
G1 X92.755 Y95.018 E2.13720
G1 X95.018 Y92.755 E2.23681
G1 X95.018 Y91.866 E2.26446
G1 X91.866 Y95.018 E2.40317
G1 X90.977 Y95.018 E2.43082
G1 X95.018 Y90.977 E2.60864
G1 X95.018 Y90.089 E2.63630
G1 X90.089 Y95.018 E2.85322
G1 X89.200 Y95.018 E2.88087
G1 X95.018 Y89.200 E3.13690
G1 X95.018 Y88.311 E3.16456
G1 X88.311 Y95.018 E3.45970
G1 X87.423 Y95.018 E3.48735
G1 X95.018 Y87.423 E3.82159
G1 X95.018 Y86.534 E3.84924
G1 X86.534 Y95.018 E4.22259
G1 X85.645 Y95.018 E4.25025
G1 X95.018 Y85.645 E4.66270
G1 X95.018 Y84.756 E4.69036
G1 X84.756 Y95.018 E5.14192
G1 X83.868 Y95.018 E5.16957
G1 X95.018 Y83.868 E5.66024
G1 X95.018 Y82.979 E5.68789
G1 X82.979 Y95.018 E6.21767
G1 X82.090 Y95.018 E6.24532
G1 X95.018 Y82.090 E6.81420
G1 X95.018 Y81.202 E6.84186
G1 X81.202 Y95.018 E7.44984
G1 X80.313 Y95.018 E7.47750
G1 X95.018 Y80.313 E8.12459
G1 X95.018 Y79.424 E8.15224
G1 X79.424 Y95.018 E8.83844
G1 X78.536 Y95.018 E8.86610
G1 X95.018 Y78.536 E9.59140
G1 X95.018 Y77.647 E9.61905
G1 X77.647 Y95.018 E10.38347
G1 X76.758 Y95.018 E10.41112
G1 X95.018 Y76.758 E11.21464
G1 X95.018 Y75.869 E11.24229
G1 X75.869 Y95.018 E12.08492
G1 X74.981 Y95.018 E12.11257
G1 X95.018 Y74.981 E12.99430
G1 X95.018 Y74.092 E13.02195
G1 X74.092 Y95.018 E13.94279
G1 X73.203 Y95.018 E13.97044
G1 X95.018 Y73.203 E14.93039
G1 X95.018 Y72.315 E14.95804
G1 X72.315 Y95.018 E15.95709
G1 X71.426 Y95.018 E15.98474
G1 X95.018 Y71.426 E17.02290
G1 X95.018 Y70.537 E17.05055
G1 X70.537 Y95.018 E18.12782
G1 X69.649 Y95.018 E18.15547
G1 X95.018 Y69.649 E19.27184
G1 X95.018 Y68.760 E19.29949
G1 X68.760 Y95.018 E20.45497
G1 X67.871 Y95.018 E20.48262
G1 X95.018 Y67.871 E21.67720
G1 X95.018 Y66.982 E21.70485
G1 X66.982 Y95.018 E22.93854
G1 X66.094 Y95.018 E22.96619
G1 X95.018 Y66.094 E24.23899
G1 X95.018 Y65.205 E24.26664
G1 X65.205 Y95.018 E25.57854
G1 X64.316 Y95.018 E25.60619
G1 X95.018 Y64.316 E26.95720
G1 X95.018 Y63.428 E26.98485
G1 X63.428 Y95.018 E28.37497
G1 X62.539 Y95.018 E28.40262
G1 X95.018 Y62.539 E29.83184
G1 X95.018 Y61.650 E29.85949
G1 X61.650 Y95.018 E31.32782
G1 X60.762 Y95.018 E31.35547
G1 X73.798 Y81.982 E31.92914
G1 X72.910 Y81.982 E31.95679
G1 X59.982 Y94.910 E32.52567
G1 X59.982 Y94.021 E32.55332
G1 X72.021 Y81.982 E33.08310
G1 X71.132 Y81.982 E33.11075
G1 X59.982 Y93.132 E33.60142
G1 X59.982 Y92.244 E33.62907
G1 X70.244 Y81.982 E34.08064
G1 X69.355 Y81.982 E34.10829
G1 X59.982 Y91.355 E34.52075
G1 X59.982 Y90.466 E34.54840
G1 X68.466 Y81.982 E34.92175
G1 X67.577 Y81.982 E34.94940
G1 X59.982 Y89.577 E35.28365
G1 X59.982 Y88.689 E35.31130
G1 X66.689 Y81.982 E35.60644
G1 X65.800 Y81.982 E35.63409
G1 X59.982 Y87.800 E35.89013
G1 X59.982 Y86.911 E35.91778
G1 X64.911 Y81.982 E36.13470
G1 X64.023 Y81.982 E36.16236
G1 X59.982 Y86.023 E36.34018
G1 X59.982 Y85.134 E36.36783
G1 X63.134 Y81.982 E36.50654
G1 X62.245 Y81.982 E36.53420
G1 X59.982 Y84.245 E36.63380
G1 X59.982 Y83.357 E36.66146
G1 X61.357 Y81.982 E36.72196
G1 X60.468 Y81.982 E36.74961
G1 X59.982 Y82.468 E36.77100
G1 E34.77100 F2400.00000
G92 E0
G1 X81.982 Y73.798 F7800.000
G1 E2.00000 F2400.00000
G1 F1800
G1 X95.018 Y60.762 E2.57367
G1 X95.018 Y59.982 E2.59794
G1 X94.910 Y59.982 E2.60132
G1 X81.982 Y72.910 E3.17020
G1 X81.982 Y72.021 E3.19786
G1 X94.021 Y59.982 E3.72763
G1 X93.132 Y59.982 E3.75528
G1 X81.982 Y71.132 E4.24596
G1 X81.982 Y70.244 E4.27361
G1 X92.244 Y59.982 E4.72517
G1 X91.355 Y59.982 E4.75282
G1 X81.982 Y69.355 E5.16528
G1 X81.982 Y68.466 E5.19293
G1 X90.466 Y59.982 E5.56629
G1 X89.577 Y59.982 E5.59394
G1 X81.982 Y67.577 E5.92818
G1 X81.982 Y66.689 E5.95584
G1 X88.689 Y59.982 E6.25098
G1 X87.800 Y59.982 E6.27863
G1 X81.982 Y65.800 E6.53466
G1 X81.982 Y64.911 E6.56231
G1 X86.911 Y59.982 E6.77924
G1 X86.023 Y59.982 E6.80689
G1 X81.982 Y64.023 E6.98471
G1 X81.982 Y63.134 E7.01236
G1 X85.134 Y59.982 E7.15108
G1 X84.245 Y59.982 E7.17873
G1 X81.982 Y62.245 E7.27834
G1 X81.982 Y61.357 E7.30599
G1 X83.357 Y59.982 E7.36649
G1 X82.468 Y59.982 E7.39415
G1 X81.982 Y60.468 E7.41553
G1 E5.41553 F2400.00000
G92 E0
G1 X95.400 Y140.400 F7800.000
G1 E2.00000 F2400.00000
G1 F1800
G1 X59.600 Y140.400 E3.10771
G1 X59.600 Y126.600 E3.53472
G1 X73.663 Y126.600 E3.96984
G1 X81.600 Y118.663 E4.31715
G1 X81.600 Y104.600 E4.75227
G1 X95.400 Y104.600 E5.17928
G1 X95.400 Y140.325 E6.28467
G1 X96.025 Y141.025 F7800.000
G1 F1800
G1 X58.975 Y141.025 E7.43105
G1 X58.975 Y125.975 E7.89673
G1 X73.404 Y125.975 E8.34318
G1 X80.975 Y118.404 E8.67447
G1 X80.975 Y103.975 E9.12092
G1 X96.025 Y103.975 E9.58659
G1 X96.025 Y140.950 E10.73065
G1 X96.650 Y141.650 F7800.000
G1 F1800
G1 X58.350 Y141.650 E11.91571
G1 X58.350 Y125.350 E12.42005
G1 X73.145 Y125.350 E12.87783
G1 X80.350 Y118.145 E13.19310
G1 X80.350 Y103.350 E13.65088
G1 X96.650 Y103.350 E14.15522
G1 X96.650 Y141.575 E15.33795
G1 X96.187 Y141.460 F7800.000
G1 E13.33795 F2400.00000
G92 E0
G1 X94.532 Y140.018 F7800.000
G1 E2.00000 F2400.00000
G1 F1800
G1 X95.018 Y139.532 E2.02139
G1 X95.018 Y138.643 E2.04905
G1 X93.643 Y140.018 E2.10955
G1 X92.755 Y140.018 E2.13720
G1 X95.018 Y137.755 E2.23681
G1 X95.018 Y136.866 E2.26446
G1 X91.866 Y140.018 E2.40317
G1 X90.977 Y140.018 E2.43082
G1 X95.018 Y135.977 E2.60864
G1 X95.018 Y135.089 E2.63630
G1 X90.089 Y140.018 E2.85322
G1 X89.200 Y140.018 E2.88087
G1 X95.018 Y134.200 E3.13690
G1 X95.018 Y133.311 E3.16456
G1 X88.311 Y140.018 E3.45970
G1 X87.423 Y140.018 E3.48735
G1 X95.018 Y132.423 E3.82159
G1 X95.018 Y131.534 E3.84924
G1 X86.534 Y140.018 E4.22259
G1 X85.645 Y140.018 E4.25025
G1 X95.018 Y130.645 E4.66270
G1 X95.018 Y129.756 E4.69036
G1 X84.756 Y140.018 E5.14192
G1 X83.868 Y140.018 E5.16957
G1 X95.018 Y128.868 E5.66024
G1 X95.018 Y127.979 E5.68789
G1 X82.979 Y140.018 E6.21767
G1 X82.090 Y140.018 E6.24532
G1 X95.018 Y127.090 E6.81420
G1 X95.018 Y126.202 E6.84186
G1 X81.202 Y140.018 E7.44984
G1 X80.313 Y140.018 E7.47750
G1 X95.018 Y125.313 E8.12459
G1 X95.018 Y124.424 E8.15224
G1 X79.424 Y140.018 E8.83844
G1 X78.536 Y140.018 E8.86610
G1 X95.018 Y123.536 E9.59140
G1 X95.018 Y122.647 E9.61905
G1 X77.647 Y140.018 E10.38347
G1 X76.758 Y140.018 E10.41112
G1 X95.018 Y121.758 E11.21464
G1 X95.018 Y120.869 E11.24229
G1 X75.869 Y140.018 E12.08492
G1 X74.981 Y140.018 E12.11257
G1 X95.018 Y119.981 E12.99430
G1 X95.018 Y119.092 E13.02195
G1 X74.092 Y140.018 E13.94279
G1 X73.203 Y140.018 E13.97044
G1 X95.018 Y118.203 E14.93039
G1 X95.018 Y117.315 E14.95804
G1 X72.315 Y140.018 E15.95709
G1 X71.426 Y140.018 E15.98474
G1 X95.018 Y116.426 E17.02290
G1 X95.018 Y115.537 E17.05055
G1 X70.537 Y140.018 E18.12782
G1 X69.649 Y140.018 E18.15547
G1 X95.018 Y114.649 E19.27184
G1 X95.018 Y113.760 E19.29949
G1 X68.760 Y140.018 E20.45497
G1 X67.871 Y140.018 E20.48262
G1 X95.018 Y112.871 E21.67720
G1 X95.018 Y111.982 E21.70485
G1 X66.982 Y140.018 E22.93854
G1 X66.094 Y140.018 E22.96619
G1 X95.018 Y111.094 E24.23899
G1 X95.018 Y110.205 E24.26664
G1 X65.205 Y140.018 E25.57854
G1 X64.316 Y140.018 E25.60619
G1 X95.018 Y109.316 E26.95720
G1 X95.018 Y108.428 E26.98485
G1 X63.428 Y140.018 E28.37497
G1 X62.539 Y140.018 E28.40262
G1 X95.018 Y107.539 E29.83184
G1 X95.018 Y106.650 E29.85949
G1 X61.650 Y140.018 E31.32782
G1 X60.762 Y140.018 E31.35547
G1 X73.798 Y126.982 E31.92914
G1 X72.910 Y126.982 E31.95679
G1 X59.982 Y139.910 E32.52567
G1 X59.982 Y139.021 E32.55332
G1 X72.021 Y126.982 E33.08310
G1 X71.132 Y126.982 E33.11075
G1 X59.982 Y138.132 E33.60142
G1 X59.982 Y137.244 E33.62907
G1 X70.244 Y126.982 E34.08064
G1 X69.355 Y126.982 E34.10829
G1 X59.982 Y136.355 E34.52075
G1 X59.982 Y135.466 E34.54840
G1 X68.466 Y126.982 E34.92175
G1 X67.577 Y126.982 E34.94940
G1 X59.982 Y134.577 E35.28365
G1 X59.982 Y133.689 E35.31130
G1 X66.689 Y126.982 E35.60644
G1 X65.800 Y126.982 E35.63409
G1 X59.982 Y132.800 E35.89013
G1 X59.982 Y131.911 E35.91778
G1 X64.911 Y126.982 E36.13470
G1 X64.023 Y126.982 E36.16236
G1 X59.982 Y131.023 E36.34018
G1 X59.982 Y130.134 E36.36783
G1 X63.134 Y126.982 E36.50654
G1 X62.245 Y126.982 E36.53420
G1 X59.982 Y129.245 E36.63380
G1 X59.982 Y128.357 E36.66146
G1 X61.357 Y126.982 E36.72196
G1 X60.468 Y126.982 E36.74961
G1 X59.982 Y127.468 E36.77100
G1 E34.77100 F2400.00000
G92 E0
G1 X81.982 Y118.798 F7800.000
G1 E2.00000 F2400.00000
G1 F1800
G1 X95.018 Y105.762 E2.57367
G1 X95.018 Y104.982 E2.59794
G1 X94.910 Y104.982 E2.60132
G1 X81.982 Y117.910 E3.17020
G1 X81.982 Y117.021 E3.19786
G1 X94.021 Y104.982 E3.72763
G1 X93.132 Y104.982 E3.75528
G1 X81.982 Y116.132 E4.24596
G1 X81.982 Y115.244 E4.27361
G1 X92.244 Y104.982 E4.72517
G1 X91.355 Y104.982 E4.75282
G1 X81.982 Y114.355 E5.16528
G1 X81.982 Y113.466 E5.19293
G1 X90.466 Y104.982 E5.56629
G1 X89.577 Y104.982 E5.59394
G1 X81.982 Y112.577 E5.92818
G1 X81.982 Y111.689 E5.95584
G1 X88.689 Y104.982 E6.25098
G1 X87.800 Y104.982 E6.27863
G1 X81.982 Y110.800 E6.53466
G1 X81.982 Y109.911 E6.56231
G1 X86.911 Y104.982 E6.77924
G1 X86.023 Y104.982 E6.80689
G1 X81.982 Y109.023 E6.98471
G1 X81.982 Y108.134 E7.01236
G1 X85.134 Y104.982 E7.15108
G1 X84.245 Y104.982 E7.17873
G1 X81.982 Y107.245 E7.27834
G1 X81.982 Y106.357 E7.30599
G1 X83.357 Y104.982 E7.36649
G1 X82.468 Y104.982 E7.39415
G1 X81.982 Y105.468 E7.41553
G1 E5.41553 F2400.00000
G92 E0
G1 X140.400 Y140.400 F7800.000
G1 E2.00000 F2400.00000
G1 F1800
G1 X104.600 Y140.400 E3.10771
G1 X104.600 Y126.600 E3.53472
G1 X118.663 Y126.600 E3.96984
G1 X126.600 Y118.663 E4.31715
G1 X126.600 Y104.600 E4.75227
G1 X140.400 Y104.600 E5.17928
G1 X140.400 Y140.325 E6.28467
G1 X141.025 Y141.025 F7800.000
G1 F1800
G1 X103.975 Y141.025 E7.43105
G1 X103.975 Y125.975 E7.89673
G1 X118.404 Y125.975 E8.34318
G1 X125.975 Y118.404 E8.67447
G1 X125.975 Y103.975 E9.12092
G1 X141.025 Y103.975 E9.58659
G1 X141.025 Y140.950 E10.73065
G1 X141.650 Y141.650 F7800.000
G1 F1800
G1 X103.350 Y141.650 E11.91571
G1 X103.350 Y125.350 E12.42005
G1 X118.145 Y125.350 E12.87783
G1 X125.350 Y118.145 E13.19310
G1 X125.350 Y103.350 E13.65088
G1 X141.650 Y103.350 E14.15522
G1 X141.650 Y141.575 E15.33795
G1 X141.187 Y141.460 F7800.000
G1 E13.33795 F2400.00000
G92 E0
G1 X139.532 Y140.018 F7800.000
G1 E2.00000 F2400.00000
G1 F1800
G1 X140.018 Y139.532 E2.02139
G1 X140.018 Y138.643 E2.04905
G1 X138.643 Y140.018 E2.10955
G1 X137.755 Y140.018 E2.13720
G1 X140.018 Y137.755 E2.23681
G1 X140.018 Y136.866 E2.26446
G1 X136.866 Y140.018 E2.40317
G1 X135.977 Y140.018 E2.43082
G1 X140.018 Y135.977 E2.60864
G1 X140.018 Y135.089 E2.63630
G1 X135.089 Y140.018 E2.85322
G1 X134.200 Y140.018 E2.88087
G1 X140.018 Y134.200 E3.13690
G1 X140.018 Y133.311 E3.16456
G1 X133.311 Y140.018 E3.45970
G1 X132.423 Y140.018 E3.48735
G1 X140.018 Y132.423 E3.82159
G1 X140.018 Y131.534 E3.84924
G1 X131.534 Y140.018 E4.22259
G1 X130.645 Y140.018 E4.25025
G1 X140.018 Y130.645 E4.66270
G1 X140.018 Y129.756 E4.69036
G1 X129.756 Y140.018 E5.14192
G1 X128.868 Y140.018 E5.16957
G1 X140.018 Y128.868 E5.66024
G1 X140.018 Y127.979 E5.68789
G1 X127.979 Y140.018 E6.21767
G1 X127.090 Y140.018 E6.24532
G1 X140.018 Y127.090 E6.81420
G1 X140.018 Y126.202 E6.84186
G1 X126.202 Y140.018 E7.44984
G1 X125.313 Y140.018 E7.47750
G1 X140.018 Y125.313 E8.12459
G1 X140.018 Y124.424 E8.15224
G1 X124.424 Y140.018 E8.83844
G1 X123.536 Y140.018 E8.86610
G1 X140.018 Y123.536 E9.59140
G1 X140.018 Y122.647 E9.61905
G1 X122.647 Y140.018 E10.38347
G1 X121.758 Y140.018 E10.41112
G1 X140.018 Y121.758 E11.21464
G1 X140.018 Y120.869 E11.24229
G1 X120.869 Y140.018 E12.08492
G1 X119.981 Y140.018 E12.11257
G1 X140.018 Y119.981 E12.99430
G1 X140.018 Y119.092 E13.02195
G1 X119.092 Y140.018 E13.94279
G1 X118.203 Y140.018 E13.97044
G1 X140.018 Y118.203 E14.93039
G1 X140.018 Y117.315 E14.95804
G1 X117.315 Y140.018 E15.95709
G1 X116.426 Y140.018 E15.98474
G1 X140.018 Y116.426 E17.02290
G1 X140.018 Y115.537 E17.05055
G1 X115.537 Y140.018 E18.12782
G1 X114.649 Y140.018 E18.15547
G1 X140.018 Y114.649 E19.27184
G1 X140.018 Y113.760 E19.29949
G1 X113.760 Y140.018 E20.45497
G1 X112.871 Y140.018 E20.48262
G1 X140.018 Y112.871 E21.67720
G1 X140.018 Y111.982 E21.70485
G1 X111.982 Y140.018 E22.93854
G1 X111.094 Y140.018 E22.96619
G1 X140.018 Y111.094 E24.23899
G1 X140.018 Y110.205 E24.26664
G1 X110.205 Y140.018 E25.57854
G1 X109.316 Y140.018 E25.60619
G1 X140.018 Y109.316 E26.95720
G1 X140.018 Y108.428 E26.98485
G1 X108.428 Y140.018 E28.37497
G1 X107.539 Y140.018 E28.40262
G1 X140.018 Y107.539 E29.83184
G1 X140.018 Y106.650 E29.85949
G1 X106.650 Y140.018 E31.32782
G1 X105.762 Y140.018 E31.35547
G1 X118.798 Y126.982 E31.92914
G1 X117.910 Y126.982 E31.95679
G1 X104.982 Y139.910 E32.52567
G1 X104.982 Y139.021 E32.55332
G1 X117.021 Y126.982 E33.08310
G1 X116.132 Y126.982 E33.11075
G1 X104.982 Y138.132 E33.60142
G1 X104.982 Y137.244 E33.62907
G1 X115.244 Y126.982 E34.08064
G1 X114.355 Y126.982 E34.10829
G1 X104.982 Y136.355 E34.52075
G1 X104.982 Y135.466 E34.54840
G1 X113.466 Y126.982 E34.92175
G1 X112.577 Y126.982 E34.94940
G1 X104.982 Y134.577 E35.28365
G1 X104.982 Y133.689 E35.31130
G1 X111.689 Y126.982 E35.60644
G1 X110.800 Y126.982 E35.63409
G1 X104.982 Y132.800 E35.89013
G1 X104.982 Y131.911 E35.91778
G1 X109.911 Y126.982 E36.13470
G1 X109.023 Y126.982 E36.16236
G1 X104.982 Y131.023 E36.34018
G1 X104.982 Y130.134 E36.36783
G1 X108.134 Y126.982 E36.50654
G1 X107.245 Y126.982 E36.53420
G1 X104.982 Y129.245 E36.63380
G1 X104.982 Y128.357 E36.66146
G1 X106.357 Y126.982 E36.72196
G1 X105.468 Y126.982 E36.74961
G1 X104.982 Y127.468 E36.77100
G1 E34.77100 F2400.00000
G92 E0
G1 X126.982 Y118.798 F7800.000
G1 E2.00000 F2400.00000
G1 F1800
G1 X140.018 Y105.762 E2.57367
G1 X140.018 Y104.982 E2.59794
G1 X139.910 Y104.982 E2.60132
G1 X126.982 Y117.910 E3.17020
G1 X126.982 Y117.021 E3.19786
G1 X139.021 Y104.982 E3.72763
G1 X138.132 Y104.982 E3.75528
